twotone/svg/group_work.svg

<svg xmlns="http://www.w3.org/2000/svg" width="24" height="24"><path fill="none" d="M0 0h24v24H0V0z"/><g fill="currentColor"><path opacity=".3" d="M12 4c-4.41 0-8 3.59-8 8s3.59 8 8 8 8-3.59 8-8-3.59-8-8-8zM8 16c-1.1 0-2-.9-2-2s.9-2 2-2 2 .9 2 2-.9 2-2 2zm4-6c-1.1 0-2-.9-2-2s.9-2 2-2 2 .9 2 2-.9 2-2 2zm4 6c-1.1 0-2-.9-2-2s.9-2 2-2 2 .9 2 2-.9 2-2 2z"/><path d="M12 2C6.48 2 2 6.48 2 12s4.48 10 10 10 10-4.48 10-10S17.52 2 12 2zm0 18c-4.41 0-8-3.59-8-8s3.59-8 8-8 8 3.59 8 8-3.59 8-8 8z"/><circle cx="8" cy="14" r="2"/><circle cx="12" cy="8" r="2"/><circle cx="16" cy="14" r="2"/></g></svg>

<?xml version="1.0" encoding="utf-8"?>
<!-- Generator: Adobe Illustrator 19.1.0, SVG Export Plug-In . SVG Version: 6.00 Build 0)  -->
<svg version="1.1" xmlns="http://www.w3.org/2000/svg" xmlns:xlink="http://www.w3.org/1999/xlink" x="0px" y="0px" width="24px"
	 height="24px" viewBox="0 0 24 24" enable-background="new 0 0 24 24" xml:space="preserve">
<g id="Header_x2F_BG" display="none">
	<rect x="-94" y="-446" display="inline" fill="#F1F1F2" width="520" height="520"/>
</g>
<g id="Bounding_Boxes">
	<g id="ui_x5F_spec_x5F_header_copy_3">
	</g>
	<path fill="none" d="M0,0h24v24H0V0z"/>
</g>
<g id="Rounded" display="none">
	<g id="ui_x5F_spec_x5F_header_copy_5" display="inline">
	</g>
	<path display="inline" d="M12,2C6.48,2,2,6.48,2,12s4.48,10,10,10s10-4.48,10-10S17.52,2,12,2z M8,17.5c-1.38,0-2.5-1.12-2.5-2.5
		s1.12-2.5,2.5-2.5s2.5,1.12,2.5,2.5S9.38,17.5,8,17.5z M9.5,8c0-1.38,1.12-2.5,2.5-2.5s2.5,1.12,2.5,2.5s-1.12,2.5-2.5,2.5
		S9.5,9.38,9.5,8z M16,17.5c-1.38,0-2.5-1.12-2.5-2.5s1.12-2.5,2.5-2.5s2.5,1.12,2.5,2.5S17.38,17.5,16,17.5z"/>
</g>
<g id="Sharp" display="none">
	<g id="ui_x5F_spec_x5F_header_copy_4" display="inline">
	</g>
	<path display="inline" d="M12,2C6.48,2,2,6.48,2,12s4.48,10,10,10s10-4.48,10-10S17.52,2,12,2z M8,17.5c-1.38,0-2.5-1.12-2.5-2.5
		s1.12-2.5,2.5-2.5s2.5,1.12,2.5,2.5S9.38,17.5,8,17.5z M9.5,8c0-1.38,1.12-2.5,2.5-2.5s2.5,1.12,2.5,2.5s-1.12,2.5-2.5,2.5
		S9.5,9.38,9.5,8z M16,17.5c-1.38,0-2.5-1.12-2.5-2.5s1.12-2.5,2.5-2.5s2.5,1.12,2.5,2.5S17.38,17.5,16,17.5z"/>
</g>
<g id="Outline" display="none">
	<g id="ui_x5F_spec_x5F_header" display="inline">
	</g>
	<g display="inline">
		<g>
			<path d="M12,2C6.48,2,2,6.48,2,12c0,5.52,4.48,10,10,10s10-4.48,10-10C22,6.48,17.52,2,12,2z M12,20c-4.41,0-8-3.59-8-8
				c0-4.41,3.59-8,8-8s8,3.59,8,8C20,16.41,16.41,20,12,20z"/>
		</g>
		<g>
			<circle cx="8" cy="14" r="2"/>
		</g>
		<g>
			<circle cx="12" cy="8" r="2"/>
		</g>
		<g>
			<circle cx="16" cy="14" r="2"/>
		</g>
	</g>
</g>
<g id="Duotone" fill="currentColor">
	<g id="ui_x5F_spec_x5F_header_copy_2">
	</g>
	<g>
		<path opacity="0.3" d="M12,4c-4.41,0-8,3.59-8,8c0,4.41,3.59,8,8,8c4.41,0,8-3.59,8-8C20,7.59,16.41,4,12,4z M8,16
			c-1.1,0-2-0.9-2-2s0.9-2,2-2s2,0.9,2,2S9.1,16,8,16z M12,10c-1.1,0-2-0.9-2-2s0.9-2,2-2s2,0.9,2,2S13.1,10,12,10z M16,16
			c-1.1,0-2-0.9-2-2s0.9-2,2-2s2,0.9,2,2S17.1,16,16,16z"/>
		<g>
			<path d="M12,2C6.48,2,2,6.48,2,12c0,5.52,4.48,10,10,10c5.52,0,10-4.48,10-10C22,6.48,17.52,2,12,2z M12,20c-4.41,0-8-3.59-8-8
				c0-4.41,3.59-8,8-8c4.41,0,8,3.59,8,8C20,16.41,16.41,20,12,20z"/>
			<g>
				<circle cx="8" cy="14" r="2"/>
			</g>
			<g>
				<circle cx="12" cy="8" r="2"/>
			</g>
			<g>
				<circle cx="16" cy="14" r="2"/>
			</g>
		</g>
	</g>
</g>
<g id="Fill" display="none">
	<g id="ui_x5F_spec_x5F_header_copy" display="inline">
	</g>
	<path display="inline" d="M12,2C6.48,2,2,6.48,2,12s4.48,10,10,10s10-4.48,10-10S17.52,2,12,2z M8,17.5c-1.38,0-2.5-1.12-2.5-2.5
		s1.12-2.5,2.5-2.5s2.5,1.12,2.5,2.5S9.38,17.5,8,17.5z M9.5,8c0-1.38,1.12-2.5,2.5-2.5s2.5,1.12,2.5,2.5s-1.12,2.5-2.5,2.5
		S9.5,9.38,9.5,8z M16,17.5c-1.38,0-2.5-1.12-2.5-2.5s1.12-2.5,2.5-2.5s2.5,1.12,2.5,2.5S17.38,17.5,16,17.5z"/>
</g>
<g id="nyt_x5F_exporter_x5F_info" display="none">
</g>
</svg>
